X:1
T:Title
%%score { ( 1 3 ) | ( 2 4 ) }
L:1/8
Q:1/4=106
M:4/4
K:C
V:1 treble nm="Grand Piano"
V:3 treble 
V:2 bass 
V:4 bass 
V:1
 E4 C2 A2 | [DG]6 z2 | z4 [Fd]2 e2 | d4 z4 | [CEc]4 [D^FB]2 [DFA]2 | d6 z2 | %6
w: Hubert~P.~Main * *||||||
 [C^FA]2 [CFA]2 [CFA]2 [DFB]2 | [B,G]8 | [Ec]4 E2 [_EA]2 | [EG]6 [Ec]2 | [Cc]2 [Ec]2 [Ed]2 [Ec]2 | %11
w: |||||
 z4 A4 | c4 B2 A2 | G4 c4 | [Ec]2 [CE]2 [B,F]2[K:bass] [F,B,D]2 | [E,C]8 | [CEG]4 [G,CE]2 [CEG]2 | %17
w: ||||||
 [Fc]4 [Ec]4 | [Ec]2 [Ge]2 [B,Fd]2 [DFB]2 | [CEc]8 | [CFA]4 [^Fd]2 [DFc]2 | %21
w: ||||
 G2- [CGc]2 d-[Fd] [Ee]2 | [Gd]2 [Ed]2 d3 c | B8 | c2 B2 A2 G2 | G2 F2 [G,CE]2 [A,CD]2 | %26
w: |||||
 [CG]2[K:bass] [E,C]2 [G,B,E]3 [F,B,D] |[M:8/4] [E,C]8 z8 |[M:4/4][K:treble] [A,CF]4 [G,CE]4 |] %29
w: |||
V:2
 [C,G,C]4 [C,E,]2 [C,E,C]2 | G,4 z2 [C,E,C]2 | CD [E,G,E]2 .[D,A,]2 [C,C]2 | C2 z2[K:bass] z4 | %4
 A,,4 D,2 C,2 | z2 F2 z2[K:treble] cB | D,2 D,2 D,2 D,2 | z4 F4 | [C,G,]4 [C,G,]2 [C,^F,]2 | %9
 [C,G,]6 [C,G,]2 | [C,E,]2 [C,G,]2 [C,_B,]2 [C,B,]2 | F4- [F,-C-F]2 [F,C]2 | %12
 [^F,A,_E]4 [F,B,E]2 [F,CE]2 | [G,CE]4 [G,E]4 | [G,,G,]2 [G,,G,]2 [G,,D,]2 G,,2 | C,8 | %16
 C,4 C,2 C,2 | [C,A,]4 [C,G,]4 | G,2 z2 z4 | A,,8 | F,4 [D,C]2 D,2 | G,F, E,2 [D,B,]2 [C,C]2 | %22
 [D,B,]2 [D,G,]2 [D,A,]2 [D,D]2 | [DG]8 | [E,G,C]4 [E,C]2 [E,_B,C]2 | [F,A,C]4 C,2 F,,2 | %26
 [G,,E,]2 G,,2 G,,3 G,, |[M:8/4] C,8 z8 |[M:4/4] F,,4 C,4 |] %29
V:3
 x8 | z4 F,2 G2 | AB c2 z B,EF | z2 B,2 [CEc]4 | x8 | G2 z2 [A,E]4 | x8 | x8 | x8 | x8 | x8 | %11
 c4 z2 E2 | x8 | x8 | x6[K:bass] x2 | x8 | x8 | x8 | x8 | x8 | x8 | [DB]2 z2 .G2 z2 | z4 ^F2 F2 | %23
 z4 F,4 | x8 | x8 | x2[K:bass] x6 |[M:8/4] x16 |[M:4/4][K:treble] x8 |] %29
V:4
 x8 | B,,6 z2 | F,2 z2 z4 | [G,-G]3 [G,F][K:bass] C,4 | x8 | [B,,G,]4 C,4[K:treble] | x8 | G,8 | %8
 x8 | x8 | x8 | [F,A,]4 z4 | x8 | x8 | x8 | x8 | x8 | x8 | G,,2- [G,,C]2 G,,2 ^G,,2 | x8 | x8 | %21
 x8 | x8 | G,4 z4 | x8 | x8 | x8 |[M:8/4] x16 |[M:4/4] x8 |] %29

